src/images/svg/symbols/markets-stocks-and-indices/american-stocks/stocks-pfizer.svg

<svg width="32" height="32" viewBox="0 0 32 32" fill="none" xmlns="http://www.w3.org/2000/svg">
<path d="M0 16C0 7.16344 7.16344 0 16 0C24.8366 0 32 7.16344 32 16C32 24.8366 24.8366 32 16 32C7.16344 32 0 24.8366 0 16Z" fill="#D0ECFC"/>
<g clip-path="url(#clip0_13177_23370)">
<path fill-rule="evenodd" clip-rule="evenodd" d="M14.4054 14.114L13.3151 18.1003H14.2313L14.635 16.6241H15.4309C16.3091 16.6241 16.8919 16.1394 17.0495 15.4657C17.1966 14.8366 16.8292 14.114 15.8451 14.114L14.4054 14.114ZM15.1933 14.583H15.5456C15.9144 14.583 16.2071 14.8783 16.1364 15.3921C16.0709 15.8684 15.5537 16.1539 15.1027 16.1539H14.7636L15.1933 14.583Z" fill="#2B01BE"/>
<path fill-rule="evenodd" clip-rule="evenodd" d="M23.8819 15.3551C23.1115 15.3551 22.5558 16.0178 22.4224 16.6802C22.2943 17.3167 22.6593 18.1625 23.6642 18.1625C24.3784 18.1625 24.7376 17.848 24.7376 17.848L24.5732 17.4422C24.5732 17.4422 24.2729 17.6866 23.8545 17.6866C23.4362 17.6866 23.1737 17.3563 23.2317 16.83H24.9403C25.0624 16.5201 25.1293 15.3551 23.8819 15.3551ZM23.8786 15.795C24.3565 15.795 24.2478 16.426 24.2478 16.426L23.2905 16.4238C23.2905 16.4238 23.4492 15.795 23.8786 15.795Z" fill="#2B01BE"/>
<path d="M15.9108 20.7612H16.7897L18.1253 15.8785H19.0381L18.4304 18.1003H19.3093L20.0381 15.4357H18.2464L18.5159 14.4504C18.6633 13.9117 18.904 13.5204 19.2541 13.5336C19.5647 13.5453 19.499 13.7113 19.4336 13.8766C19.4176 13.9171 19.4015 13.9577 19.3911 13.9958C19.3178 14.2638 19.5157 14.5333 19.8624 14.5333C20.6155 14.5333 20.8012 13.1504 19.3909 13.1504C17.9924 13.1504 17.6255 14.4926 17.4223 15.2359L15.9108 20.7612Z" fill="#2B01BE"/>
<path d="M20.3692 15.4358L20.2481 15.8785H21.3621L19.6108 18.1003H22.0839L22.205 17.6575H20.9483L22.6996 15.4358H20.3692Z" fill="#2B01BE"/>
<path d="M27.2875 15.3909C26.7144 15.3909 26.3766 15.9826 26.3766 15.9826L26.5262 15.4358H25.6473L24.9185 18.1003H25.7974C25.7974 18.1003 26.009 17.3218 26.1168 16.9331C26.283 16.3256 26.6221 15.9452 26.7852 15.9296C26.865 15.922 26.9077 15.9991 26.9585 16.0904C27.0275 16.2148 27.1112 16.3656 27.323 16.3656C27.8805 16.3656 28.0006 15.3909 27.2875 15.3909Z" fill="#2B01BE"/>
<path d="M11.2526 18.1065C8.1008 17.9099 4.43817 16.2842 4.56746 14.9462L4.13263 16.5361C4.0007 17.9012 7.39831 19.5219 10.7912 19.7932L11.2526 18.1065Z" fill="#2B01BE"/>
<path d="M9.88385 17.2088C10.9551 17.1788 12.1186 16.9358 12.398 15.9144L12.8593 14.2276C12.58 15.249 11.4164 15.492 10.3452 15.5221C9.46457 15.5467 8.48272 15.4303 8.48272 15.4303L8.02136 17.1171C8.02136 17.1171 9.00324 17.2335 9.88385 17.2088Z" fill="#2B01BE"/>
<path d="M12.3973 15.9154C12.5266 14.5774 8.86393 12.9517 5.71216 12.7551L6.17354 11.0684C9.56645 11.3396 12.964 12.9604 12.8321 14.3255L12.3973 15.9154Z" fill="#0190FF"/>
<path d="M7.08093 13.6527C6.0097 13.6828 4.8462 13.9258 4.56682 14.9472L4.10547 16.634C4.38482 15.6126 5.54834 15.3695 6.61957 15.3395C7.50018 15.3148 8.48208 15.4313 8.48208 15.4313L8.94344 13.7445C8.94344 13.7445 7.96154 13.6281 7.08093 13.6527Z" fill="#0190FF"/>
</g>
<defs>
<clipPath id="clip0_13177_23370">
<rect width="24" height="9.8304" fill="white" transform="translate(4 11)"/>
</clipPath>
</defs>
</svg>

<svg width="32" height="32" fill="none" xmlns="http://www.w3.org/2000/svg"><path d="M0 16C0 7.163 7.163 0 16 0s16 7.163 16 16-7.163 16-16 16S0 24.837 0 16Z" fill="#D0ECFC"/><g clip-path="url(#a)"><path fill-rule="evenodd" clip-rule="evenodd" d="m14.405 14.114-1.09 3.986h.916l.404-1.476h.796c.878 0 1.46-.485 1.618-1.158.148-.63-.22-1.352-1.204-1.352h-1.44Zm.788.469h.353c.368 0 .661.295.59.81-.065.475-.582.76-1.033.76h-.34l.43-1.57ZM23.882 15.355c-.77 0-1.326.663-1.46 1.325-.128.637.237 1.483 1.242 1.483.714 0 1.074-.315 1.074-.315l-.165-.406s-.3.245-.718.245c-.419 0-.681-.33-.623-.857h1.708c.122-.31.19-1.475-1.058-1.475Zm-.003.44c.477 0 .369.631.369.631l-.957-.002s.158-.629.588-.629Z" fill="#2B01BE"/><path d="M15.91 20.761h.88l1.335-4.882h.913L18.43 18.1h.88l.728-2.664h-1.792l.27-.986c.147-.538.388-.93.738-.916.31.011.245.177.18.343-.016.04-.033.08-.043.119-.073.268.125.537.471.537.754 0 .94-1.383-.471-1.383-1.399 0-1.765 1.343-1.969 2.086l-1.511 5.525ZM20.37 15.436l-.122.443h1.114L19.611 18.1h2.473l.121-.443h-1.257l1.752-2.221h-2.33ZM27.288 15.39c-.574 0-.911.593-.911.593l.15-.547h-.88L24.92 18.1h.878s.212-.778.32-1.167c.166-.607.505-.988.668-1.003.08-.008.123.07.174.16.069.125.152.276.364.276.558 0 .678-.975-.035-.975ZM11.253 18.107c-3.152-.197-6.815-1.823-6.686-3.16l-.434 1.59C4 17.9 7.398 19.521 10.79 19.792l.462-1.686Z" fill="#2B01BE"/><path d="M9.884 17.209c1.071-.03 2.235-.273 2.514-1.295l.461-1.686c-.279 1.021-1.443 1.264-2.514 1.294-.88.025-1.862-.092-1.862-.092l-.462 1.687s.982.116 1.863.092Z" fill="#2B01BE"/><path d="M12.397 15.915c.13-1.338-3.533-2.963-6.685-3.16l.462-1.687c3.392.272 6.79 1.892 6.658 3.258l-.435 1.59Z" fill="#0190FF"/><path d="M7.08 13.653c-1.07.03-2.234.273-2.513 1.294l-.462 1.687c.28-1.021 1.443-1.264 2.515-1.295.88-.024 1.862.092 1.862.092l.461-1.686s-.981-.117-1.862-.092Z" fill="#0190FF"/></g><defs><clipPath id="a"><path fill="#fff" transform="translate(4 11)" d="M0 0h24v9.83H0z"/></clipPath></defs></svg>
